icons/fill-new-office-folder-close-delete.svg

<svg xmlns="http://www.w3.org/2000/svg" width="32px" height="32px" viewBox="0 0 32 32" version="1.1">
    <title>fill-new-office-folder-close-delete</title>
    <g id="fill-new-office-folder-close-delete" stroke-width="1" fill-rule="evenodd">
        <path d="M12.0857864,4 C12.3510029,4 12.6053568,4.10535684 12.7928932,4.29289322 L16.2071068,7.70710678 C16.3946432,7.89464316 16.6489971,8 16.9142136,8 L29,8 C29.5522847,8 30,8.44771525 30,9 L30,27 C30,27.5522847 29.5522847,28 29,28 L3,28 C2.44771525,28 2,27.5522847 2,27 L2,5 C2,4.44771525 2.44771525,4 3,4 L12.0857864,4 Z M13.7071068,14.2928932 C13.3165825,13.9023689 12.6834175,13.9023689 12.2928932,14.2928932 C11.9023689,14.6834175 11.9023689,15.3165825 12.2928932,15.7071068 L14.585,18 L12.2928932,20.2928932 C11.9324093,20.6533772 11.9046797,21.2206082 12.2097046,21.6128994 L12.2928932,21.7071068 C12.6834175,22.0976311 13.3165825,22.0976311 13.7071068,21.7071068 L16,19.415 L18.2928932,21.7071068 C18.6533772,22.0675907 19.2206082,22.0953203 19.6128994,21.7902954 L19.7071068,21.7071068 C20.0976311,21.3165825 20.0976311,20.6834175 19.7071068,20.2928932 L17.415,18 L19.7071068,15.7071068 C20.0675907,15.3466228 20.0953203,14.7793918 19.7902954,14.3871006 L19.7071068,14.2928932 C19.3165825,13.9023689 18.6834175,13.9023689 18.2928932,14.2928932 L16,16.585 L13.7071068,14.2928932 Z" id="&#24418;&#29366;" />
    </g>
</svg>

<svg xmlns="http://www.w3.org/2000/svg" viewBox="0 0 32 32"><path fill="currentColor" d="M12.086 4a1 1 0 0 1 .707.293l3.414 3.414a1 1 0 0 0 .707.293H29a1 1 0 0 1 1 1v18a1 1 0 0 1-1 1H3a1 1 0 0 1-1-1V5a1 1 0 0 1 1-1zm1.621 10.293a1 1 0 0 0-1.414 1.414L14.585 18l-2.292 2.293a1 1 0 0 0-.083 1.32l.083.094a1 1 0 0 0 1.414 0L16 19.415l2.293 2.292a1 1 0 0 0 1.32.083l.094-.083a1 1 0 0 0 0-1.414L17.415 18l2.292-2.293a1 1 0 0 0 .083-1.32l-.083-.094a1 1 0 0 0-1.414 0L16 16.585z"/></svg>
